X:436
T:Mormond Braes 
C:Joe Buchanan's Scottish Tome - Page 055.2
I:055 2
R:March
Z:Carl Allison
L:1/8
M:2/4
K:Dmaj
D|"D" FF FE|"D" FD D>E|"D" FA dA|"G" B2 "A" AB/c/|
"Bm" dd df|"F#m" AA F>A|"G" BA "D" dF|"A7" E2 "D" D :|

